actions/22/node-line.svg

<?xml version="1.0" encoding="UTF-8" standalone="no"?>
<!-- Created with Inkscape (http://www.inkscape.org/) -->

<svg
   xmlns:dc="http://purl.org/dc/elements/1.1/"
   xmlns:cc="http://creativecommons.org/ns#"
   xmlns:rdf="http://www.w3.org/1999/02/22-rdf-syntax-ns#"
   xmlns:svg="http://www.w3.org/2000/svg"
   xmlns="http://www.w3.org/2000/svg"
   xmlns:xlink="http://www.w3.org/1999/xlink"
   xmlns:inkscape="http://www.inkscape.org/namespaces/inkscape"
   version="1.0"
   width="22"
   height="22"
   id="svg7862">
  <defs
     id="defs7864">
    <linearGradient
       x1="-8.6875"
       y1="410.10919"
       x2="-8.6875"
       y2="417.38632"
       id="linearGradient18160"
       xlink:href="#linearGradient8357"
       gradientUnits="userSpaceOnUse" />
    <linearGradient
       x1="12.197592"
       y1="401.09631"
       x2="15.698984"
       y2="404.59772"
       id="linearGradient18158"
       xlink:href="#linearGradient7430"
       gradientUnits="userSpaceOnUse"
       gradientTransform="matrix(1.166667,0,0,1.160582,-23.75,-54.04044)" />
    <linearGradient
       id="linearGradient8357">
      <stop
         id="stop8359"
         style="stop-color:#ffffff;stop-opacity:1"
         offset="0" />
      <stop
         id="stop8361"
         style="stop-color:#ffffff;stop-opacity:0"
         offset="1" />
    </linearGradient>
    <linearGradient
       x1="-8.6875"
       y1="410.10919"
       x2="-8.6875"
       y2="417.38632"
       id="linearGradient17277"
       xlink:href="#linearGradient8357"
       gradientUnits="userSpaceOnUse" />
    <linearGradient
       id="linearGradient7430">
      <stop
         id="stop7432"
         style="stop-color:#d3d7cf;stop-opacity:1"
         offset="0" />
      <stop
         id="stop7434"
         style="stop-color:#fafbfa;stop-opacity:1"
         offset="1" />
    </linearGradient>
    <linearGradient
       x1="12.197592"
       y1="401.09631"
       x2="15.698984"
       y2="404.59772"
       id="linearGradient17275"
       xlink:href="#linearGradient7430"
       gradientUnits="userSpaceOnUse"
       gradientTransform="matrix(1.166667,0,0,1.160582,-23.75,-54.04044)" />
    <linearGradient
       id="linearGradient8343">
      <stop
         id="stop8345"
         style="stop-color:#babdb6;stop-opacity:0"
         offset="0" />
      <stop
         id="stop8351"
         style="stop-color:#babdb6;stop-opacity:1"
         offset="0.2" />
      <stop
         id="stop8353"
         style="stop-color:#babdb6;stop-opacity:1"
         offset="0.84444445" />
      <stop
         id="stop8347"
         style="stop-color:#babdb6;stop-opacity:0"
         offset="1" />
    </linearGradient>
    <linearGradient
       x1="-16.000221"
       y1="423.58575"
       x2="0.58696824"
       y2="423.58575"
       id="linearGradient17263"
       xlink:href="#linearGradient8343"
       gradientUnits="userSpaceOnUse"
       gradientTransform="matrix(1.294118,0,0,1,1.705882,-10.5436)" />
    <linearGradient
       id="linearGradient8331">
      <stop
         id="stop8333"
         style="stop-color:#555753;stop-opacity:0"
         offset="0" />
      <stop
         id="stop8339"
         style="stop-color:#555753;stop-opacity:1"
         offset="0.2" />
      <stop
         id="stop8341"
         style="stop-color:#555753;stop-opacity:1"
         offset="0.80000001" />
      <stop
         id="stop8335"
         style="stop-color:#555753;stop-opacity:0"
         offset="1" />
    </linearGradient>
    <linearGradient
       x1="-16.000061"
       y1="423.45538"
       x2="1.0000585"
       y2="423.45538"
       id="linearGradient17261"
       xlink:href="#linearGradient8331"
       gradientUnits="userSpaceOnUse"
       gradientTransform="matrix(1.294118,0,0,1.333333,1.705882,-151.2103)" />
  </defs>
  <metadata
     id="metadata7867">
    <rdf:RDF>
      <cc:Work
         rdf:about="">
        <dc:format>image/svg+xml</dc:format>
        <dc:type
           rdf:resource="http://purl.org/dc/dcmitype/StillImage" />
      </cc:Work>
    </rdf:RDF>
  </metadata>
  <g
     id="layer1">
    <g
       transform="matrix(1,0,0,1.005236,19.124901,-412.00672)"
       id="node_line">
      <g
         transform="matrix(0.551396,-0.548525,0.717308,0.713574,-300.7893,121.8808)"
         id="g17245">
        <path
           d="m -19,411.4564 22.0000004,0 0,4 -22.0000004,0 0,-4 z"
           inkscape:connector-curvature="0"
           id="path17247"
           style="fill:url(#linearGradient17261);fill-opacity:1;stroke:none" />
        <path
           d="m -19,412.4564 22.0000004,0 0,1 -22.0000004,0 0,-1 z"
           inkscape:connector-curvature="0"
           id="path17249"
           style="fill:url(#linearGradient17263);fill-opacity:1;stroke:none" />
      </g>
      <g
         transform="translate(5.875102,1.740965)"
         id="g17269">
        <path
           d="m -11.500002,409.61195 7.0000013,0 0,6.96349 -7.0000013,0 0,-6.96349 z"
           inkscape:connector-curvature="0"
           id="path17271"
           style="fill:url(#linearGradient17275);fill-opacity:1;stroke:#888a85;stroke-width:0.99739248;stroke-linecap:round;stroke-linejoin:round;stroke-miterlimit:4;stroke-opacity:1" />
        <path
           d="m -10.499999,410.60685 4.9999994,0 0,4.9739 -4.9999994,0 0,-4.9739 z"
           inkscape:connector-curvature="0"
           id="path17273"
           style="fill:none;stroke:url(#linearGradient17277);stroke-width:0.99739254;stroke-linecap:round;stroke-linejoin:miter;stroke-miterlimit:4;stroke-opacity:1" />
      </g>
      <g
         transform="translate(-6.124899,13.67841)"
         id="g18152">
        <path
           d="m -11.500002,409.61195 7.0000013,0 0,6.96349 -7.0000013,0 0,-6.96349 z"
           inkscape:connector-curvature="0"
           id="path18154"
           style="fill:url(#linearGradient18158);fill-opacity:1;stroke:#888a85;stroke-width:0.99739248;stroke-linecap:round;stroke-linejoin:round;stroke-miterlimit:4;stroke-opacity:1" />
        <path
           d="m -10.499999,410.60685 4.9999994,0 0,4.9739 -4.9999994,0 0,-4.9739 z"
           inkscape:connector-curvature="0"
           id="path18156"
           style="fill:none;stroke:url(#linearGradient18160);stroke-width:0.99739254;stroke-linecap:round;stroke-linejoin:miter;stroke-miterlimit:4;stroke-opacity:1" />
      </g>
    </g>
  </g>
</svg>

<?xml version="1.0" encoding="UTF-8" standalone="no"?>
<!-- Created with Inkscape (http://www.inkscape.org/) -->
<svg
   xmlns:dc="http://purl.org/dc/elements/1.1/"
   xmlns:cc="http://web.resource.org/cc/"
   xmlns:rdf="http://www.w3.org/1999/02/22-rdf-syntax-ns#"
   xmlns:svg="http://www.w3.org/2000/svg"
   xmlns="http://www.w3.org/2000/svg"
   xmlns:xlink="http://www.w3.org/1999/xlink"
   xmlns:sodipodi="http://sodipodi.sourceforge.net/DTD/sodipodi-0.dtd"
   xmlns:inkscape="http://www.inkscape.org/namespaces/inkscape"
   width="22"
   height="22"
   id="svg7862"
   sodipodi:version="0.32"
   inkscape:version="0.44+devel"
   version="1.0"
   sodipodi:docbase="/home/andreas/project/inkscape/22x22/actions"
   sodipodi:docname="node-line.svg"
   inkscape:output_extension="org.inkscape.output.svg.inkscape"
   sodipodi:modified="true">
  <defs
     id="defs7864">
    <linearGradient
       inkscape:collect="always"
       xlink:href="#linearGradient8357"
       id="linearGradient18160"
       gradientUnits="userSpaceOnUse"
       x1="-8.6875"
       y1="410.10919"
       x2="-8.6875"
       y2="417.38632" />
    <linearGradient
       inkscape:collect="always"
       xlink:href="#linearGradient7430"
       id="linearGradient18158"
       gradientUnits="userSpaceOnUse"
       gradientTransform="matrix(1.166667,0,0,1.160582,-23.75,-54.04044)"
       x1="12.197592"
       y1="401.09631"
       x2="15.698984"
       y2="404.59772" />
    <linearGradient
       inkscape:collect="always"
       id="linearGradient8357">
      <stop
         style="stop-color:white;stop-opacity:1;"
         offset="0"
         id="stop8359" />
      <stop
         style="stop-color:white;stop-opacity:0;"
         offset="1"
         id="stop8361" />
    </linearGradient>
    <linearGradient
       inkscape:collect="always"
       xlink:href="#linearGradient8357"
       id="linearGradient17277"
       gradientUnits="userSpaceOnUse"
       x1="-8.6875"
       y1="410.10919"
       x2="-8.6875"
       y2="417.38632" />
    <linearGradient
       inkscape:collect="always"
       id="linearGradient7430">
      <stop
         style="stop-color:#d3d7cf;stop-opacity:1;"
         offset="0"
         id="stop7432" />
      <stop
         style="stop-color:#fafbfa;stop-opacity:1"
         offset="1"
         id="stop7434" />
    </linearGradient>
    <linearGradient
       inkscape:collect="always"
       xlink:href="#linearGradient7430"
       id="linearGradient17275"
       gradientUnits="userSpaceOnUse"
       gradientTransform="matrix(1.166667,0,0,1.160582,-23.75,-54.04044)"
       x1="12.197592"
       y1="401.09631"
       x2="15.698984"
       y2="404.59772" />
    <linearGradient
       id="linearGradient8343">
      <stop
         style="stop-color:#babdb6;stop-opacity:0;"
         offset="0"
         id="stop8345" />
      <stop
         id="stop8351"
         offset="0.2"
         style="stop-color:#babdb6;stop-opacity:1;" />
      <stop
         style="stop-color:#babdb6;stop-opacity:1;"
         offset="0.84444445"
         id="stop8353" />
      <stop
         style="stop-color:#babdb6;stop-opacity:0;"
         offset="1"
         id="stop8347" />
    </linearGradient>
    <linearGradient
       inkscape:collect="always"
       xlink:href="#linearGradient8343"
       id="linearGradient17263"
       gradientUnits="userSpaceOnUse"
       gradientTransform="matrix(1.294118,0,0,1,1.705882,-10.5436)"
       x1="-16.000221"
       y1="423.58575"
       x2="0.58696824"
       y2="423.58575" />
    <linearGradient
       id="linearGradient8331">
      <stop
         style="stop-color:#555753;stop-opacity:0;"
         offset="0"
         id="stop8333" />
      <stop
         id="stop8339"
         offset="0.2"
         style="stop-color:#555753;stop-opacity:1;" />
      <stop
         style="stop-color:#555753;stop-opacity:1;"
         offset="0.80000001"
         id="stop8341" />
      <stop
         style="stop-color:#555753;stop-opacity:0;"
         offset="1"
         id="stop8335" />
    </linearGradient>
    <linearGradient
       inkscape:collect="always"
       xlink:href="#linearGradient8331"
       id="linearGradient17261"
       gradientUnits="userSpaceOnUse"
       gradientTransform="matrix(1.294118,0,0,1.333333,1.705882,-151.2103)"
       x1="-16.000061"
       y1="423.45538"
       x2="1.0000585"
       y2="423.45538" />
  </defs>
  <sodipodi:namedview
     id="base"
     pagecolor="#ffffff"
     bordercolor="#666666"
     borderopacity="1.0"
     inkscape:pageopacity="0.0"
     inkscape:pageshadow="2"
     inkscape:zoom="11.313708"
     inkscape:cx="-2.3316604"
     inkscape:cy="10.775311"
     inkscape:current-layer="node_line"
     showgrid="false"
     inkscape:grid-bbox="true"
     inkscape:document-units="px"
     width="22px"
     height="22px"
     inkscape:window-width="797"
     inkscape:window-height="628"
     inkscape:window-x="3"
     inkscape:window-y="72" />
  <metadata
     id="metadata7867">
    <rdf:RDF>
      <cc:Work
         rdf:about="">
        <dc:format>image/svg+xml</dc:format>
        <dc:type
           rdf:resource="http://purl.org/dc/dcmitype/StillImage" />
      </cc:Work>
    </rdf:RDF>
  </metadata>
  <g
     id="layer1"
     inkscape:label="Layer 1"
     inkscape:groupmode="layer">
    <g
       id="node_line"
       transform="matrix(1,0,0,1.005236,19.124901,-412.00672)">
      <g
         id="g17245"
         transform="matrix(0.551396,-0.548525,0.717308,0.713574,-300.7893,121.8808)">
        <path
           style="fill:url(#linearGradient17261);fill-opacity:1;stroke:none;stroke-width:1;stroke-linecap:round;stroke-linejoin:miter;stroke-miterlimit:4;stroke-opacity:1"
           d="M -19,411.4564 L 3.0000004,411.4564 L 3.0000004,415.4564 L -19,415.4564 L -19,411.4564 z "
           id="path17247" />
        <path
           style="fill:url(#linearGradient17263);fill-opacity:1;stroke:none;stroke-width:1;stroke-linecap:round;stroke-linejoin:miter;stroke-miterlimit:4;stroke-opacity:1"
           d="M -19,412.4564 L 3.0000004,412.4564 L 3.0000004,413.4564 L -19,413.4564 L -19,412.4564 z "
           id="path17249" />
      </g>
      <g
         id="g17269"
         transform="translate(5.875102,1.740965)">
        <path
           id="path17271"
           d="M -11.500002,409.61195 L -4.5000007,409.61195 L -4.5000007,416.57544 L -11.500002,416.57544 L -11.500002,409.61195 z "
           style="fill:url(#linearGradient17275);fill-opacity:1;stroke:#888a85;stroke-width:0.99739248;stroke-linecap:round;stroke-linejoin:round;stroke-miterlimit:4;stroke-opacity:1" />
        <path
           id="path17273"
           d="M -10.499999,410.60685 L -5.4999996,410.60685 L -5.4999996,415.58075 L -10.499999,415.58075 L -10.499999,410.60685 z "
           style="fill:none;fill-opacity:1;stroke:url(#linearGradient17277);stroke-width:0.99739254;stroke-linecap:round;stroke-linejoin:miter;stroke-miterlimit:4;stroke-opacity:1" />
      </g>
      <g
         id="g18152"
         transform="translate(-6.124899,13.67841)">
        <path
           id="path18154"
           d="M -11.500002,409.61195 L -4.5000007,409.61195 L -4.5000007,416.57544 L -11.500002,416.57544 L -11.500002,409.61195 z "
           style="fill:url(#linearGradient18158);fill-opacity:1;stroke:#888a85;stroke-width:0.99739248;stroke-linecap:round;stroke-linejoin:round;stroke-miterlimit:4;stroke-opacity:1" />
        <path
           id="path18156"
           d="M -10.499999,410.60685 L -5.4999996,410.60685 L -5.4999996,415.58075 L -10.499999,415.58075 L -10.499999,410.60685 z "
           style="fill:none;fill-opacity:1;stroke:url(#linearGradient18160);stroke-width:0.99739254;stroke-linecap:round;stroke-linejoin:miter;stroke-miterlimit:4;stroke-opacity:1" />
      </g>
    </g>
  </g>
</svg>
